X:464
%%etbk:tnset id:210,pos:1,rep:3,ant:
%%etbk:pldat 2016-08-18T18:09,2016-08-17T15:26,2016-08-16T15:23,2016-08-15T18:34,2016-08-11T18:06,2016-08-10T15:22,2016-08-08T18:05,2016-08-06T10:52,2016-03-09T17:28,2016-03-08T16:42,2015-08-01T14:55,2015-07-29T15:28,2015-07-23T18:25,2015-06-26T16:43,2015-06-17T15:53,2015-06-16T15:33,2015-05-07T18:27,2015-04-16T18:22,2015-04-15T15:43,2015-04-13T18:23,2015-04-12T10:07,2015-04-11T13:45,2015-03-19T18:09,2015-03-18T16:14,2015-03-16T18:32,2015-03-15T15:41,2015-03-04T16:05,2015-02-22T14:17,2015-02-21T16:04,2015-02-19T18:09,2015-02-18T16:20,2015-02-17T15:12,2015-02-14T12:23,2015-02-13T19:06,2015-02-11T16:03,2015-02-10T15:56,2014-09-04T18:03,2014-09-03T18:12,2014-09-02T18:07,2014-09-01T18:06,2014-08-31T12:02,2014-08-28T18:07,2014-08-27T18:12,2014-08-26T15:30,2014-08-25T19:05,2014-08-24T16:56,2014-08-24T11:05,2014-08-19T18:50
T: The Town I Loved So Well
Z: Piano Box Version by Martin Fleischmann
H: Created 2014-08-24 /  Last Modified 2014-08-24
M: 4/4
L: 1/8
R: song
K: Gmaj
 !1!B,C| "G"!3!D6 !1!D2| "D"!5!A6 GF| "C"!4!G6!5!G-E| "G"!2!D6 D2| "C"!3!E6F-G| "G"!1!!3!B,6!1!G,-A,| "em"!3!B,6C-B,| "D"!2!A,4 z2 !1!B,C|
"G"D6 D2| "D"A6 GF| "C"G6G-E| "G"D6 DD| "C"E4 F2 G2| "G"!1!B,4 B,- "D"!2!A,2 !1!G,| -"G"G,8-| G,4 z2 !2!D!1!D|
"G"!2!G4 G2 G2| "D"!3!A6 Bc| "C"!5!c- B3 B2-A2| "G"!2!G4 z2 AB| "C"!5!c6 c2| c3 B A3 !2!G| "D"!3!F-E !1!!3!D6-| D4 z2 B,C| 
"G"D6 D2| "D"A6 GF| "C"G3 G G3 E| "G"D6 DD| "C"E6F-G| "G"B,6B,"D"-A,| "G"G,8-| G,4 z2||


